X: 6
T: Muiñeira De Cabana
Z: swisspiper
S: https://thesession.org/tunes/437#setting47121
R: jig
M: 6/8
L: 1/8
K: Dmaj
b2^a|:fgf ece|dcB B^AB|cde fga|g2f b2^a|
fgf ece|dcB B^AB|cde edc|1 B3 b2^a:|2 B3 Bcd||
|:B2B B^AB|c2c cde|f2d e2c|dcB Bcd|
B2B B^AB|c2c cde|fgf edc|1 B3 Bcd:|2 B3 ^def||
|:f^dB ^g2^g|f^dB ^dcB|^ABc ^g2^g|f^dB ^def|
f^dB ^g2^g|f^dB ^dcB|^A^gf e^dc|B3 ^def:|

%-------------------- TUNE SEPARATOR --------------------%

